X: 10177
T: Dinny Delaney's
R: slide
M: 12/8
K: Dmixolydian
|A2D DED A2G E2G|A2D DED G2A GED|A2D DED c2d e2d|dcA AGE G2A GED|
A2D DED A2B G2B|A2B G2B ~E3 GED|A2D DED c2d e2d|dcA AGE G2A GED||
|:dcA AGA ~c3 ABc|dcA AGE G2A GED|dcA AGA c2d e2d|dcA AGE G2A GED:|

